X:1
T:Title
%%score { ( 1 3 ) | ( 2 4 ) }
L:1/8
M:4/4
K:Eb
V:1 treble nm="Grand Piano"
V:3 treble 
V:2 bass 
V:4 bass 
V:1
 z4 z2[Q:1/4=106] E2 | G2 G2 G2 FE | G2 G4 [FA]2 | [GB]2 [GB]2 [GB]2 [EG]2 | [GB]6 [Gc]2 | %5
 A2 AG [FA]2 [DB]2 | G2 G4 G2 | F2 F2 F2 [EF]2 | [DF]6 [FA]2 | G2 G2 G2 FE | G2 G4 [FA]2 | %11
 [GB]2 [GB]2 [GB]2 [EG]2 | [GB]6 [GB]2 | [EAc]2 [EAc]2 [EAc]2 [EAd][EAc] | [Ac]2 [GB]4 G2 | %15
 F2 F2 G2 =A2 |[M:3/4] [DB]6 |[M:1/4] BB |[M:4/4] e4 d2 c2 | [Ac]2 [GB]4 [Ge][EG] | %20
 [DF]2 [Ac][Ac] [GB]2 [FA]2 | G6 BB | e4 d2 c2 | [Ac]2 [GB]4 [Ge][EG] | [GB]2 [FA]2 [EG]2 [DF]2 | %25
[M:3/4] E6 |] %26
V:2
 z4 z2 [E,G,]2 | [E,B,E]2 [E,B,E]2 [E,B,E]2 [E,A,E][E,G,] | [E,B,E]2 [E,B,E]4 [E,B,]2 | %3
 [E,E]2 [E,E]2 [E,E]2 [E,B,]2 | [E,E]6 [E,E]2 | [F,B,D]2 [F,B,D][F,B,D] [D,B,]2 [B,,B,]2 | %6
 [E,B,E]2 [E,B,E]4 [=E,B,_D]2 | [F,B,D]2 [E,=A,C]2 [D,B,]2 [C,A,]2 | [B,,B,]6 [B,,B,]2 | %9
 [E,B,E]2 [E,B,E]2 [E,B,E]2 [E,A,E][E,G,] | [E,B,E]2 [E,B,E]4 [E,B,]2 | %11
 [E,E]2 [E,E]2 [E,E]2 [E,B,]2 | [E,E]6 [E,E]2 | A,,2 A,,2 A,,2 A,,A,, | [E,E]2 [E,E]4 [E,B,E]2 | %15
 [F,B,D]2 [F,B,D]2 [F,=A,E]2 [F,CE]2 |[M:3/4] [B,,B,]6 |[M:1/4][K:treble] [B,A][B,A] | %18
[M:4/4][K:bass] B,2- [G,B,]2[K:treble] [A,E]2 .[A,CA]2 | [E,E]2 [E,E]4 [E,B,][E,B,] | %20
 [B,,B,]2 [B,,B,][B,,B,] [B,,B,]2 [B,,B,]2 | [E,B,E]6[K:treble] [B,A][B,A] | %22
 B,2- [G,B,]2[K:treble] [A,E]2 .[A,CA]2 | [E,E]2 [E,E]4 [E,B,][E,B,] | %24
 [B,,B,]2 [B,,B,]2 [B,,B,]2 [B,,A,]2 |[M:3/4] [E,G,]6 |] %26
V:3
 x8 | x8 | x8 | x8 | x8 | x8 | x8 | x8 | x8 | x8 | x8 | x8 | x8 | x8 | x8 | x8 |[M:3/4] x6 | %17
[M:1/4] x2 |[M:4/4] G2 E2 z B, z D | x8 | x8 | x8 | G2 E2 z B, z D | x8 | x8 |[M:3/4] x6 |] %26
V:4
 x8 | x8 | x8 | x8 | x8 | x8 | x8 | x8 | x8 | x8 | x8 | x8 | x8 | x8 | x8 | x8 |[M:3/4] x6 | %17
[M:1/4][K:treble] x2 |[M:4/4][K:bass] E,2 z2[K:treble] z4 | x8 | x8 | x6[K:treble] x2 | %22
 E,2 z2[K:treble] z4 | x8 | x8 |[M:3/4] x6 |] %26

